images/INST.svg

<svg width="43" height="43" viewBox="0 0 43 43" fill="none" xmlns="http://www.w3.org/2000/svg">
<ellipse cx="21.4888" cy="21.5" rx="21.4888" ry="21.5" fill="white"/>
<path d="M24.375 31H17.625C14.5189 31 12 28.4811 12 25.375V18.625C12 15.5189 14.5189 13 17.625 13H24.375C27.4811 13 30 15.5189 30 18.625V25.375C30 28.4811 27.4811 31 24.375 31ZM28.3125 18.625C28.3125 16.4537 26.5463 14.6875 24.375 14.6875H17.625C15.4538 14.6875 13.6875 16.4537 13.6875 18.625V25.375C13.6875 27.5462 15.4538 29.3125 17.625 29.3125H24.375C26.5463 29.3125 28.3125 27.5462 28.3125 25.375V18.625Z" fill="black"/>
<path d="M21 26.5C18.5149 26.5 16.5 24.4851 16.5 22C16.5 19.5149 18.5149 17.5 21 17.5C23.4851 17.5 25.5 19.5149 25.5 22C25.5 24.4851 23.4851 26.5 21 26.5ZM21 19.1875C19.4497 19.1875 18.1875 20.4497 18.1875 22C18.1875 23.5514 19.4497 24.8125 21 24.8125C22.5503 24.8125 23.8125 23.5514 23.8125 22C23.8125 20.4497 22.5503 19.1875 21 19.1875Z" fill="black"/>
<path d="M25.8375 26.2379C26.1687 26.2379 26.4371 26.5063 26.4371 26.8375C26.4371 27.1687 26.1687 27.4371 25.8375 27.4371C25.5063 27.4371 25.2379 27.1687 25.2379 26.8375C25.2379 26.5063 25.5063 26.2379 25.8375 26.2379Z" fill="black"/>
</svg>

<svg width="43" height="43" fill="none" xmlns="http://www.w3.org/2000/svg"><ellipse cx="21.489" cy="21.5" rx="21.489" ry="21.5" fill="#fff"/><path d="M24.375 31h-6.75A5.626 5.626 0 0112 25.375v-6.75A5.626 5.626 0 0117.625 13h6.75A5.626 5.626 0 0130 18.625v6.75A5.626 5.626 0 0124.375 31zm3.938-12.375a3.942 3.942 0 00-3.938-3.938h-6.75a3.942 3.942 0 00-3.938 3.938v6.75a3.942 3.942 0 003.938 3.938h6.75a3.942 3.942 0 003.938-3.938v-6.75z" fill="#000"/><path d="M21 26.5a4.5 4.5 0 110-9 4.5 4.5 0 010 9zm0-7.313A2.816 2.816 0 0018.187 22 2.816 2.816 0 0021 24.813 2.816 2.816 0 0023.813 22 2.816 2.816 0 0021 19.187zM25.837 26.238a.6.6 0 110 1.199.6.6 0 010-1.2z" fill="#000"/></svg>
